X:386
T:Vals efter J.P. Landholm
R:Vals
Z:Jonas Brunskog, 21/8 2008
O:Hjorted, Småland
S:efter Johan Petter Landholm
S:efter Gösta Klemming
B:50 Småländska låtar
M:3/4
L:1/8
K:D
|:"D"LD2 (DF) (Ac)|(Lc2 d2) d2|"G"(dB) (GB) (dB)|"A7"A2 (AG) EC|
"D"LD2 (DF) (Ac)|(Lc2 d2) d2|"G"(dB) (GB) (dB)|"A7"A4 z2:|
K:Dm
|:"Dm"D2 (FA) (cA)|"F"(A2 F2) F2|"A"E2 (E^C) (EG)|"Dm"(GF) EF D2|
"Dm"D2 (FA) (cA)|"F"(A2 F2) F2|"A"E2 (E^C) (EF)|"Dm"D4 z2:|
(:musicend:)

(:music:)
